X: 337
T: Mazourka No. 1.	 Op. 50
C: Fryderyk Chopin
%%abc-version 2.0
%%abcx-abcm2ps-target-version 5.9.1 (29 Sep 2008)
%%abc-creator hum2abc beta
%%abcx-conversion-date 2021/10/03 11:23:58
%%abc-edited-by Marta Lawrence
%%abc-edited-by Jacek Iwaszko
%%abc-edited-by Leszek Kubiak
%%abc-edited-by Leszek Kubiak
%%abcx-initial-encoding-date 2018-06-15
%%humdrum-veritas 3608016006
%%humdrum-veritas-data 518137323
%%linebreak <none>
%%barnumbers 0
L: 1/4
M: 3/4
N: Derived from 050-1-ME-001.krn
P: Trois Mazourkas pour piano
Q: "Vivace."
%%staves {1 2}
V: 1 clef=treble
V: 2 clef=bass
K: G
[V:1] .D/ z/ F/E/D/F/ & xC2- | 
[V:2] .D,,/ z/ A,/G,/F,/A,/ & xD,2 | 
[V:1] A/z//B//!accent![c2F2C2] & Cx2 | 
[V:2] xD2 & D,3- | 
[V:1] [B/G/D/]z//[A//C//][GB,][BDB,] | 
[V:2] D,/>D,/G,2 & G,,2G,,- | 
[V:1] .[eGE]!accent![d2G2D2] | 
[V:2] !arpeggio![^A,^C,G,,]!arpeggio![B,2D,2G,,2] | 
[V:1] .D/ z/ F/E/D/F/ & xC2- | 
[V:2] .D,,/ z/ A,/G,/F,/A,/ & xD,2 | 
[V:1] A/z//B//!accent![c2F2C2] & Cx2 | 
[V:2] xD2 & D,3- | 
[V:1] [B/G/D/]z//[A//C//][GB,][EC] | 
[V:2] D,/>D,/G,2- & G,,2C, | 
[V:1] [GDB,][E2C2G,2] | 
[V:2] G,x2 & G,,C,A,, | 
[V:1] .[D/C/-F,/] z/ F/E/D/F/ & xC2- | 
[V:2] .D,,/ z/ A,/G,/F,/A,/ & xD,2 | 
[V:1] A/z//B//!accent![c2F2C2] & Cx2 | 
[V:2] xD2 & D,3- | 
[V:1] [B/G/D/]z//[A//C//][GB,][BDB,] | 
[V:2] D,/>D,/G,2 & G,,2G,,- | 
[V:1] {/=F}!arpeggio![e2F2][dB=F] | 
[V:2] [B,2G,,2]^G,, | 
[V:1] {/d} [c/E/]>[B/^G/D/][AE][B=FD] | 
[V:2] A,,/>B,,/C,D, | 
[V:1] [A/C/]>[^G/B,/][BD][AC] & E3 | 
[V:2] E,E,,A,, | 
[V:1] [B/D/]>[A/C/][GB,][AEC] & Fx2 | 
[V:2] D,G,C, | 
[V:1] [G/B,/]>[F/A,/][AC][GB,] & D3 | 
[V:2] D,D,,G,, | 
[V:1] ^A/z//B//!accent!E2 | 
[V:2] E,,[E2G,2E,2]- | 
[V:1] F/G/ (3B/c/B/ A/B/ | 
[V:2] [E3E,3]- & G,G,F,/G,/ | 
[V:1] c/d/ed/c/ | 
[V:2] A,/B,/CB,/A,/ & [E3E,3]- | 
[V:1] {/Bc} B/z//^A//BG | 
[V:2] [E3E,3] & G,/>F,/G,B, | 
[V:1] ^A/B/!accent!E2 | 
[V:2] .E,,[E2G,2E,2]- | 
[V:1] F/G/ (3B/c/B/ A/B/ | 
[V:2] [E3E,3]- & G,G,F,/G,/ | 
[V:1] c/d/ed/c/ | 
[V:2] A,/B,/CB,/A,/ & [E3E,3]- | 
[V:1] B/z//c// (3B/c/B/ [G/^C/]E/ & x2^C | 
[V:2] G,/z//A,//G,[E,/A,,/]G,/ & [EE,]xA,, | 
[V:1] .D/ z/ F/E/D/F/ & x=C2- | 
[V:2] .D,,/ z/ A,/G,/F,/A,/ & xD,2 | 
[V:1] A/z//B//!accent![c2F2C2] & Cx2 | 
[V:2] xD2 & D,3- | 
[V:1] [B/G/D/]z//[A//C//][GB,][BDB,] | 
[V:2] D,/>D,/G,2 & G,,2G,,- | 
[V:1] .[eGE]!accent![d2G2D2] | 
[V:2] !arpeggio![^A,^C,G,,]!arpeggio![B,2D,2G,,2] | 
[V:1] .D/ z/ F/E/D/F/ & xC2- | 
[V:2] .D,,/ z/ A,/G,/F,/A,/ & xD,2 | 
[V:1] A/z//B//!accent![c2F2C2] & Cx2 | 
[V:2] xD2 & D,3- | 
[V:1] [B/G/D/]z//[A//C//][GB,][EC] | 
[V:2] D,/>D,/G,2- & G,,2C, | 
[V:1] [GDB,][E2C2G,2] | 
[V:2] G,x2 & G,,C,A,, | 
[V:1] .[D/C/F,/] z/ F/E/D/F/ & xC2- | 
[V:2] .D,,/ z/ A,/G,/F,/A,/ & xD,2 | 
[V:1] A/z//B//!accent![c2F2C2] & Cx2 | 
[V:2] xD2 & D,3- | 
[V:1] [B/G/D/]z//[A//C//][GB,][BDB,] | 
[V:2] D,/>D,/G,2- & G,,2G,,- | 
[V:1] {/=F}!arpeggio![e2=F2][dBF] | 
[V:2] [G,,2B,2]^G,, | 
[V:1] {/d} [c/E/]>[B/^G/D/][AE][B=FD] | 
[V:2] A,,/>B,,/C,D, | 
[V:1] [A/C/]>[^G/B,/][BD][AC] & E3 | 
[V:2] E,E,,A,, | 
[V:1] [B/D/]>[A/C/][GB,][AEC] & Fx2 | 
[V:2] D,G,C, | 
[V:1] [G/B,/]>[F/A,/][AC][GB,] & D3 | 
[V:2] D,D,,G,, | 
[V:1] xG2- & z[_EC][EC] | 
[V:2] _A,/G,/_E,C,/E,/ | 
[V:1] G3 & z[DC][DB,] | 
[V:2] G,,/D,/G,F,/G,/ | 
[V:1] z[G_EC][AE-] | 
[V:2] _A,/G,/_E,C,/=F,/ | 
[V:1] _B3- & ED[_AD] | 
[V:2] _B,,/=F,/_B,2 | 
[V:1] B_Bc & z[G_E]G- | 
[V:2] C/_B,/G,_E,/A,/ | 
[V:1] d3- & GF[AF] | 
[V:2] D,/A,/D^C/D/ | 
[V:1] d>d{/=f}!arpeggio!_e3//d// & z[_BG]!arpeggio![BG] | 
[V:2] _E/D/_B,G,/B,/ | 
[V:1] dA2- & [AG]^FF | 
[V:2] D,/A,/D2- | 
[V:1] A3- & [GE][GE]F | 
[V:2] D/^C/A,D- | 
[V:1] A2x & [GE][GE]F | 
[V:2] D/^C/A,D3//=C// | 
[V:1] [G=FD][GFD][GE] | 
[V:2] C/B,/G,C3//B,// | 
[V:1] [^FE][FE^C][F^D] | 
[V:2] B,/^A,/F,B, | 
[V:1] .[^G/E/=D/]z//A//Bc3//B// & x!accent![G2D2] | 
[V:2] E,3 & E,,E2 | 
[V:1] B/>A/ {/C}e2 & C!arpeggio![e2-G2C2] | 
[V:2] A,,/E,/C2- & A,,3 | 
[V:1] e/d/cB3//A// & F3- | 
[V:2] CED3//C// & D,3- | 
[V:1] ^GA(3!arpeggio!E/F/E/ & F2!arpeggio!C- | 
[V:2] B,C=G, & D,3- | 
[V:1] DF/E/D/F/ & C3- | 
[V:2] F,A,/G,/F,/A,/ & D,3 | 
[V:1] A/z//B//!accent![c2F2C2] & Cx2 | 
[V:2] xD2 & D,3- | 
[V:1] [B/G/D/]z//[A//C//][GB,][BDB,] | 
[V:2] D,/>D,/G,2 & G,,2G,,- | 
[V:1] .[eGE]!accent![d2G2D2] | 
[V:2] !arpeggio![^A,^C,G,,]!accent!!arpeggio![B,2D,2G,,2] | 
[V:1] .D/ z/ F/E/D/F/ & xC2- | 
[V:2] .D,,/ z/ A,/G,/F,/A,/ & xD,2 | 
[V:1] A/z//B//!accent![c2F2C2] & Cx2 | 
[V:2] xD2 & D,3- | 
[V:1] [B/G/D/]z//[A//C//][GB,][EC] | 
[V:2] D,/>D,/G,2- & G,,2C, | 
[V:1] [GDB,][E2C2G,2] | 
[V:2] G,C,A,, & G,,x2 | 
[V:1] .[D/C/F,/] z/ F/E/D/F/ & xC2- | 
[V:2] .D,,/ z/ A,/G,/F,/A,/ & xD,2 | 
[V:1] A/z//B//!accent![c2F2C2] & Cx2 | 
[V:2] xD2 & D,3- | 
[V:1] [B/G/D/]z//[A//C//][GB,][BDB,] | 
[V:2] D,/>D,/G,2 & G,,2G,,- | 
[V:1] {/=F}!arpeggio![e2=F2][dB=F] | 
[V:2] [B,2G,,2]^G,, | 
[V:1] {/d} [c/E/]>[B/^G/D/][AE][B=FD] | 
[V:2] A,,/>B,,/C,D, | 
[V:1] [A/C/]>[^G/B,/][BD][AC] & E3 | 
[V:2] E,E,,A,, | 
[V:1] [B/D/]>[A/C/][GB,][AEC] & Fx2 | 
[V:2] D,G,C, | 
[V:1] [G/B,/]>[F/A,/][AC][GB,] & D3 | 
[V:2] D,D,,G,,- | 
[V:1] _EEE | 
[V:2] !accent!_B,3 & _E,E,E, | 
[V:1] _E/>D/^CD | 
[V:2] !accent!=B,3 & _E,/>D,/^C,D, | 
[V:1] _E/>=F/GF3//E// & !accent!_B,!accent!B,!accent!B, | 
[V:2] _E,/>=F,/G,F,3//E,// & G,,G,,G,, | 
[V:1] _E/>D/^CD & !accent!=B,3 | 
[V:2] _E,/>D,/^C,D, & G,,3 | 
[V:1] [^G/=F/B,/]z//[A//^F//C//][B=F][c^F] & xD2 | 
[V:2] x^G,A, & {/D,,}D,3 | 
[V:1] ^c/>d/[g3/B3/]!mordent![B/G/] & Gx2 | 
[V:2] ^A,/B,/D2- & G,2G, | 
[V:1] [^G/=F/]z//[A//^F//][B=F][c^F] | 
[V:2] B,/z//C//^G,A, & [D3D,3] | 
[V:1] [e/^A/]>[d/B/] {/B} [b/B/]>g/ (3d/B/G/ | 
[V:2] ^C/>D/Gz & G,2x | 
[V:1] _B3 & [_e_E][eE][eE] | 
[V:2] _E,E,E, & G,,3 | 
[V:1] [_e/_E/]>[d/D/][^c^C][dD] & =B3 | 
[V:2] _E,/>D,/^C,D, & G,,3 | 
[V:1] [_e/_E/]>[=f/=F/][gG][f3//F3//][e//E//] & _BBB | 
[V:2] _E,/>=F,/!accent!G,F,3//E,// & G,,G,,G,, | 
[V:1] [_e/_E/]>[d/D/][^c^C][dD] & =B3 | 
[V:2] _E,/>D,/^C,D,- & G,,3 | 
[V:1] .[^G/=F/]z//[A//^F//][B=F][c^F] | 
[V:2] D,3- & D,,/z//C//^G,A, | 
[V:1] [^c/G/]>[e/_B/][gc][_be] | 
[V:2] _B,/>^C/EG & D,x2 | 
[V:1] [g/^c/]>[e/_B/][cG][BE] | 
[V:2] E/>^C/_B,G, | 
[V:1] [e/G/E/]>[d/G/D/][cFD][FC] | 
[V:2] ^A,/>B,/xD & x=A,2 | 
[V:1] G3- & B,[=FDG,][FDG,] | 
[V:2] .G,,B,,/A,,/G,,/B,,/ | 
[V:1] G3- & [_EDG,][EC][EC] | 
[V:2] C,/>_E,/G,2 | 
[V:1] G2x & [DC][DB,][BG] | 
[V:2] .G,,D,/B,/G,/E/ | 
[V:1] x2(3c/d/c/ & [cG][cF][FD] | 
[V:2] D/>A,/D,2 | 
[V:1] [BGD][G=FD][GFD] | 
[V:2] .G,,B,,/A,,/G,,/B,,/ | 
[V:1] G3- & [_ED][EC][EC] | 
[V:2] C,/>_E,/G,2 | 
[V:1] G2x & [DC][DB,][BG] | 
[V:2] .G,,D,/B,/G,/E/ | 
[V:1] [cG][cF](3c/d/c/ & x2[FD] | 
[V:2] D/>A,/D,2 | 
[V:1] B2x & [GD][GD][BG] | 
[V:2] .G,,D,/B,/G,/E/ | 
[V:1] [BFC][AFC](3A/B/A/ & x2[FC] | 
[V:2] D/>A,/D,2 | 
[V:1] [GC][DB,][DB,] | 
[V:2] .G,,D,/B,/G,/E/ | 
[V:1] [DCF,][DCF,](3D/E/D/- & x2[CF,] | 
[V:2] D/A,/D,2 | 
[V:1] D3- | 
[V:2] G,G,G, & B,/D,/G,,B,/D,/ | 
[V:1] D2[_ECG,] | 
[V:2] G,G,x & G,,2C,, | 
[V:1] {/=F} !arpeggio![_E/C/]D/[DB,].[gBG] | 
[V:2] G,,,zG, & !arpeggio!G,2.D | 
[V:1] [g'3b3g3] |]  
[V:2] [K:clef=treble][G3d3] |]
